icons/circle/48/tagainijisho.svg

<svg xmlns="http://www.w3.org/2000/svg" viewBox="0 0 48 48">
 <defs>
  <linearGradient id="linearGradient3764" x1="1" x2="47" gradientUnits="userSpaceOnUse" gradientTransform="matrix(0,-1,1,0,-1.5e-6,47.999998)">
   <stop style="stop-color:#1c5f9f;stop-opacity:1"/>
   <stop offset="1" style="stop-color:#1f6ab1;stop-opacity:1"/>
  </linearGradient>
 </defs>
 <g>
  <path d="m 36.31 5 c 5.859 4.062 9.688 10.831 9.688 18.5 c 0 12.426 -10.07 22.5 -22.5 22.5 c -7.669 0 -14.438 -3.828 -18.5 -9.688 c 1.037 1.822 2.306 3.499 3.781 4.969 c 4.085 3.712 9.514 5.969 15.469 5.969 c 12.703 0 23 -10.298 23 -23 c 0 -5.954 -2.256 -11.384 -5.969 -15.469 c -1.469 -1.475 -3.147 -2.744 -4.969 -3.781 z m 4.969 3.781 c 3.854 4.113 6.219 9.637 6.219 15.719 c 0 12.703 -10.297 23 -23 23 c -6.081 0 -11.606 -2.364 -15.719 -6.219 c 4.16 4.144 9.883 6.719 16.219 6.719 c 12.703 0 23 -10.298 23 -23 c 0 -6.335 -2.575 -12.06 -6.719 -16.219 z" style="opacity:0.05"/>
  <path d="m 41.28 8.781 c 3.712 4.085 5.969 9.514 5.969 15.469 c 0 12.703 -10.297 23 -23 23 c -5.954 0 -11.384 -2.256 -15.469 -5.969 c 4.113 3.854 9.637 6.219 15.719 6.219 c 12.703 0 23 -10.298 23 -23 c 0 -6.081 -2.364 -11.606 -6.219 -15.719 z" style="opacity:0.1"/>
  <path d="m 31.25 2.375 c 8.615 3.154 14.75 11.417 14.75 21.13 c 0 12.426 -10.07 22.5 -22.5 22.5 c -9.708 0 -17.971 -6.135 -21.12 -14.75 a 23 23 0 0 0 44.875 -7 a 23 23 0 0 0 -16 -21.875 z" style="opacity:0.2"/>
 </g>
 <g>
  <path d="m 24 1 c -6.97 0 -13.21 3.104 -17.428 8 l -2.775 4 c -1.783 3.268 -2.797 7.01 -2.797 11 c 0 3.985 1.014 7.732 2.797 11 l 2.775 4 c 4.218 4.896 10.458 8 17.428 8 c 6.97 0 13.21 -3.104 17.428 -8 l 2.775 -4 c 1.783 -3.268 2.797 -7.01 2.797 -11 c 0 -3.985 -1.014 -7.732 -2.797 -11 l -2.775 -4 c -4.218 -4.896 -10.458 -8 -17.428 -8 z" style="fill:url(#linearGradient3764);fill-opacity:1"/>
  <path d="m 5.756 10 c -0.953 1.24 -1.785 2.579 -2.473 4 l 12.717 0 l -5 19 l 5 0 l 0.264 -1 l 14.18 0 l -0.443 4 l -25.623 0 c 0.887 1.448 1.932 2.787 3.107 4 l 33.03 0 c 1.175 -1.213 2.22 -2.552 3.107 -4 l -8.623 0 l 2 -18 l -17.05 0 l 1.053 -4 l 23.717 0 c -0.687 -1.421 -1.52 -2.76 -2.473 -4 l -36.488 0 z m 13.14 12 l 12.66 0 l -0.666 6 l -13.572 0 l 1.578 -6 z" style="fill:#000;opacity:0.1;fill-opacity:1"/>
 </g>
 <g>
  <g>
   <g transform="translate(1,1)">
    <g style="opacity:0.1">
     <!-- color: #3a569c -->
    </g>
   </g>
  </g>
 </g>
 <path d="m 6.572 9 c -1.058 1.228 -1.993 2.566 -2.775 4 l 11.203 0 l -5 19 l 5 0 l 0.264 -1 l 14.18 0 l -0.443 4 l -25.2 0 c 0.782 1.434 1.717 2.772 2.775 4 l 34.855 0 c 1.058 -1.228 1.993 -2.566 2.775 -4 l -10.203 0 l 2 -18 l -17.05 0 l 1.053 -4 l 24.2 0 c -0.782 -1.434 -1.717 -2.772 -2.775 -4 l -34.855 0 z m 11.322 12 l 12.66 0 l -0.666 6 l -13.572 0 l 1.578 -6 z" style="fill:#e4f0fc;opacity:1;fill-opacity:1;stroke:none"/>
 <g>
  <path d="m 40.03 7.531 c 3.712 4.084 5.969 9.514 5.969 15.469 0 12.703 -10.297 23 -23 23 c -5.954 0 -11.384 -2.256 -15.469 -5.969 4.178 4.291 10.01 6.969 16.469 6.969 c 12.703 0 23 -10.298 23 -23 0 -6.462 -2.677 -12.291 -6.969 -16.469 z" style="opacity:0.1"/>
 </g>
</svg>

<svg xmlns="http://www.w3.org/2000/svg" viewBox="0 0 48 48">
  <defs>
    <linearGradient id="a" x1="1" x2="47" gradientUnits="userSpaceOnUse" gradientTransform="rotate(-90 24 24)">
      <stop stop-color="#1c5f9f"/>
      <stop offset="1" stop-color="#1f6ab1"/>
    </linearGradient>
  </defs>
  <path d="M36.31 5c5.859 4.062 9.688 10.831 9.688 18.5 0 12.426-10.07 22.5-22.5 22.5-7.669 0-14.438-3.828-18.5-9.688a23.24 23.24 0 0 0 3.781 4.969 22.923 22.923 0 0 0 15.469 5.969c12.703 0 23-10.298 23-23a22.92 22.92 0 0 0-5.969-15.469A23.216 23.216 0 0 0 36.31 5zm4.969 3.781A22.911 22.911 0 0 1 47.498 24.5c0 12.703-10.297 23-23 23a22.909 22.909 0 0 1-15.719-6.219C12.939 45.425 18.662 48 24.998 48c12.703 0 23-10.298 23-23 0-6.335-2.575-12.06-6.719-16.219z" opacity=".05"/>
  <path d="M41.28 8.781a22.923 22.923 0 0 1 5.969 15.469c0 12.703-10.297 23-23 23A22.92 22.92 0 0 1 8.78 41.281 22.911 22.911 0 0 0 24.499 47.5c12.703 0 23-10.298 23-23A22.909 22.909 0 0 0 41.28 8.781z" opacity=".1"/>
  <path d="M31.25 2.375C39.865 5.529 46 13.792 46 23.505c0 12.426-10.07 22.5-22.5 22.5-9.708 0-17.971-6.135-21.12-14.75a23 23 0 0 0 44.875-7 23 23 0 0 0-16-21.875z" opacity=".2"/>
  <path d="M24 1C17.03 1 10.79 4.104 6.572 9l-2.775 4A22.881 22.881 0 0 0 1 24c0 3.985 1.014 7.732 2.797 11l2.775 4C10.79 43.896 17.03 47 24 47c6.97 0 13.21-3.104 17.428-8l2.775-4A22.881 22.881 0 0 0 47 24c0-3.985-1.014-7.732-2.797-11l-2.775-4C37.21 4.104 30.97 1 24 1z" fill="url(#a)"/>
  <path d="M5.756 10a23.055 23.055 0 0 0-2.473 4H16l-5 19h5l.264-1h14.18l-.443 4H4.378a23.081 23.081 0 0 0 3.107 4h33.03a23.081 23.081 0 0 0 3.107-4h-8.623l2-18h-17.05l1.053-4h23.717a22.995 22.995 0 0 0-2.473-4H5.758zm13.14 12h12.66l-.666 6H17.318l1.578-6z" opacity=".1"/>
  <path d="M6.572 9a23.017 23.017 0 0 0-2.775 4H15l-5 19h5l.264-1h14.18l-.443 4h-25.2a23.017 23.017 0 0 0 2.775 4h34.855a23.017 23.017 0 0 0 2.775-4H34.003l2-18h-17.05l1.053-4h24.2a23.017 23.017 0 0 0-2.775-4H6.576zm11.322 12h12.66l-.666 6H16.316l1.578-6z" fill="#e4f0fc"/>
  <g>
    <path d="M40.03 7.531A22.922 22.922 0 0 1 45.999 23c0 12.703-10.297 23-23 23A22.92 22.92 0 0 1 7.53 40.031C11.708 44.322 17.54 47 23.999 47c12.703 0 23-10.298 23-23 0-6.462-2.677-12.291-6.969-16.469z" opacity=".1"/>
  </g>
</svg>
